polaris-icons/icons/new-icons/ManagedStoreMajor.svg

<svg width="20" height="20" viewBox="0 0 20 20" fill="none" xmlns="http://www.w3.org/2000/svg">
<path d="M13.0303 12.0303C13.3232 11.7374 13.3232 11.2626 13.0303 10.9697C12.7374 10.6768 12.2626 10.6768 11.9697 10.9697L9.5 13.4393L8.53033 12.4697C8.23744 12.1768 7.76256 12.1768 7.46967 12.4697C7.17678 12.7626 7.17678 13.2374 7.46967 13.5303L8.96967 15.0303C9.26256 15.3232 9.73744 15.3232 10.0303 15.0303L13.0303 12.0303Z" fill="#4A4A4A"/>
<path fill-rule="evenodd" clip-rule="evenodd" d="M13.9598 2.5H6.04016C5.59159 2.5 5.17741 2.74036 4.95486 3.12983L3.1647 6.26261C3.05677 6.45148 3 6.66525 3 6.88278V7.75C3 8.81867 3.60958 9.74497 4.5 10.2001V15.75C4.5 16.7165 5.2835 17.5 6.25 17.5H13.75C14.7165 17.5 15.5 16.7165 15.5 15.75V10.2001C16.3904 9.74497 17 8.81867 17 7.75V6.88278C17 6.66525 16.9432 6.45148 16.8353 6.26261L15.0451 3.12983C14.8226 2.74036 14.4084 2.5 13.9598 2.5ZM6.18524 4H13.8148L15.5 6.94917V7.75C15.5 8.44036 14.9404 9 14.25 9H14C13.3096 9 12.75 8.44036 12.75 7.75V7.25C12.75 6.83579 12.4142 6.5 12 6.5C11.5858 6.5 11.25 6.83579 11.25 7.25V7.75C11.25 8.44036 10.6904 9 10 9C9.30964 9 8.75 8.44036 8.75 7.75V7.25C8.75 6.83579 8.41421 6.5 8 6.5C7.58579 6.5 7.25 6.83579 7.25 7.25V7.75C7.25 8.44036 6.69036 9 6 9H5.75C5.05964 9 4.5 8.44036 4.5 7.75V6.94917L6.18524 4ZM12 9.63747C12.5014 10.1686 13.212 10.5 14 10.5V15.75C14 15.8881 13.8881 16 13.75 16H6.25C6.11193 16 6 15.8881 6 15.75V10.5C6.78801 10.5 7.49862 10.1686 8 9.63747C8.50138 10.1686 9.21199 10.5 10 10.5C10.788 10.5 11.4986 10.1686 12 9.63747Z" fill="#4A4A4A"/>
</svg>

<svg viewBox="0 0 20 20" xmlns="http://www.w3.org/2000/svg"><path d="M13.03 12.03a.75.75 0 1 0-1.06-1.06l-2.47 2.47-.97-.97a.75.75 0 0 0-1.06 1.06l1.5 1.5a.75.75 0 0 0 1.06 0l3-3Z" fill="#5C5F62"/><path fill-rule="evenodd" d="M13.96 2.5h-7.92c-.448 0-.863.24-1.085.63l-1.79 3.133a1.25 1.25 0 0 0-.165.62v.867a2.75 2.75 0 0 0 1.5 2.45v5.55c0 .966.784 1.75 1.75 1.75h7.5a1.75 1.75 0 0 0 1.75-1.75v-5.55a2.75 2.75 0 0 0 1.5-2.45v-.867a1.25 1.25 0 0 0-.165-.62l-1.79-3.133a1.25 1.25 0 0 0-1.085-.63Zm-7.775 1.5h7.63l1.685 2.95v.8c0 .69-.56 1.25-1.25 1.25h-.25c-.69 0-1.25-.56-1.25-1.25v-.5a.75.75 0 0 0-1.5 0v.5a1.25 1.25 0 1 1-2.5 0v-.5a.75.75 0 0 0-1.5 0v.5c0 .69-.56 1.25-1.25 1.25h-.25c-.69 0-1.25-.56-1.25-1.25v-.8l1.685-2.95Zm5.815 5.637a2.742 2.742 0 0 0 2 .863v5.25a.25.25 0 0 1-.25.25h-7.5a.25.25 0 0 1-.25-.25v-5.25c.788 0 1.499-.331 2-.863a2.742 2.742 0 0 0 2 .863c.788 0 1.499-.331 2-.863Z" fill="#5C5F62"/></svg>
